/* XPM */
static char *pic[] = {
"32 32 4 1",
". c none",
"k c #000000",
"w c #ffffff",
"g c #00aa00",
"................................",
"................................",
"................................",
"................................",
"................................",
"............ggggggggg...........",
"..........ggggggggggggg.........",
".........gggwwwwwwwwwggg........",
"........gggwwwwwwwwwwwggg.......",
".......ggwwwwwwwwwwwwwwwgg......",
"......gggwwwwwwwwwwwwwwwggg.....",
"......ggwwwwwwwwwwwwwwwwwgg.....",
".....ggwwwwwwwkkkkkwwwwwwwgg....",
".....ggwwwwwwkkkkkkkwwwwwwgg....",
".....ggwwwwwkkkkkkkkkwwwwwgg....",
".....ggwwwwwkkkkkkkkkwwwwwgg....",
".....ggwwwwwkkkkkkkkkwwwwwgg....",
".....ggwwwwwkkkkkkkkkwwwwwgg....",
".....ggwwwwwkkkkkkkkkwwwwwgg....",
".....ggwwwwwwkkkkkkkwwwwwwgg....",
".....ggwwwwwwwkkkkkwwwwwwwgg....",
"......ggwwwwwwwwwwwwwwwwwgg.....",
"......gggwwwwwwwwwwwwwwwggg.....",
".......ggwwwwwwwwwwwwwwwgg......",
"........gggwwwwwwwwwwwggg.......",
".........gggwwwwwwwwwggg........",
"..........ggggggggggggg.........",
"............ggggggggg...........",
"................................",
"................................",
"................................",
"................................"
};
