/* XPM */
static char *pic2[] = {
"32 32 3 1",
"r c #cc2222",
"y c #ffcc00",
"w c #ffffff",
"yyyyyyyyyyyyyyyyyyyyyyyyyyyyyyyy",
"yyyyyyyyyyyyyyyyyyyyyyyyyyyyyyyy",
"yyyyyyyyyyyyyyyyyyyyyyyyyyyyyyyy",
"yyyrwwwwrrrrrrrrrrrrrrrrrrrrryyy",
"yyyrwrrrwrrrrrrrrrrrrrrrrrrrryyy",
"yyyrwrrrwrwrwwrrrwwwrrrwwwwrryyy",
"yyyrwrrrwrwwrrwrrrrrwrwrrrwrryyy",
"yyyrwrrrwrwrrrrrrwwwwrrwwwwrryyy",
"yyyrwrrrwrwrrrrrwrrrwrrrrrwrryyy",
"yyyrwwwwrrwrrrrrrwwwwrrwwwrrryyy",
"yyyrrrrrrrrrrrrrrrrrrrrrrrrrryyy",
"yyyrrrrrrrrrrrrrrrrrrrrrrrrrryyy",
"yyyrrrrrrrrrrrrrrrrrrrrwrrrrryyy",
"yyyrrrrrrrrrrrrrrrrrrrrwrrrrryyy",
"yyyrrrrrwwwrrwrwwrrrwwwwrrrrryyy",
"yyyrrrrrrrrwrwwrrwrwrrrwrrrrryyy",
"yyyrrrrrwwwwrwrrrwrwrrrwrrrrryyy",
"yyyrrrrwrrrwrwrrrwrwrrrwrrrrryyy",
"yyyrrrrrwwwwrwrrrwrrwwwwrrrrryyy",
"yyyrrrrrrrrrrrrrrrrrrrrrrrrrryyy",
"yyyrrrrrrrrrrrrrrrrrrrrrrrrrryyy",
"yyyrwwwwrrrrrrrrrrrrrrrrrrrrryyy",
"yyyrwrrrwrrrrrrrrrrrrrrrrrrrryyy",
"yyyrwrrrwrwrwwrrrwwwrrwwwwrrryyy",
"yyyrwrrrwrwwrrwrwrrrwrwrrrwrryyy",
"yyyrwrrrwrwrrrrrwrrrwrwwwwrrryyy",
"yyyrwrrrwrwrrrrrwrrrwrwrrrrrryyy",
"yyyrwwwwrrwrrrrrrwwwrrwrrrrrryyy",
"yyyrrrrrrrrrrrrrrrrrrrrrrrrrryyy",
"yyyyyyyyyyyyyyyyyyyyyyyyyyyyyyyy",
"yyyyyyyyyyyyyyyyyyyyyyyyyyyyyyyy",
"yyyyyyyyyyyyyyyyyyyyyyyyyyyyyyyy"
};
